X: 11
T:Buttard Peas. JaW.011
T:Buttered Peas,aka. JaW.011
M:C|
L:1/8
Q:1/4=100
C:"Thomas Houghton's Way Of Playing It"
S:James Winder Ms, Lancashire, 1835-41
R:Country Dance
O:England
A:Wyresdale,Lancashire
H:1/8
Z:vmp.Chris Partington, Aug 2004
K:G
Bdd(c/B/) cee(d/c/)|Bdd(c/B/) cA A2|Bdd(c/B/) cee(d/c/)|BdAc BG G2:|!
|:Bddf (g/f/)(e/f/) g2|Bdd(c/B/) BAA2|Bddf (g/f/)(e/f/)g2|BdAc BGG2:|]
